X: 26223
T: Meelick Team, The
R: jig
M: 6/8
K: Eminor
~e3 dBA|BAG EDB,|DEG Eed|BAG ABd|
dee dBA|BAG EDB,|DEG Eed|BAF ~E3:|
|:~e3 gfe|beg fed|Beg beg|fed e2f|
~g3 edB|BAF DFA|d2e fed|BAF ~E3:|

